X:1
T:Sweet Easter-Time
T:Sweet Easter-Time
T:Howard E. Smith
T:James Rowe, 1911
T:Public Domain Courtesy of the Cyber Hymnal™
T:Public Domain Courtesy of the Cyber Hymnal™
C:Howard E. Smith
Z:Public Domain
Z:Courtesy of the Cyber Hymnal™
%%score ( 1 2 ) ( 3 4 )
L:1/8
Q:1/4=100
M:6/8
K:Eb
V:1 treble 
V:2 treble 
V:3 bass 
V:4 bass 
V:1
 [EG]3 [EG][FA][GB] | [Gc]3 [GB]2 z | [EG][EA][EG] [B,E]2 [B,E] | [B,D]3- [B,D]2 z | %4
w: 1.~Hail, glor- i- ous|East- er!|beau- ti- ful time of|spring! *|
w: 2.~Hail, glor- i- ous|East- er!|morn- ing of joy and|light! *|
w: 3.~Hail, glor- i- ous|East- er!|glad- ness we have to|spare; *|
 [FA]3 [FA][GB][Ac] | [Ad]3 [Ac]2 z | [FA][GB][FA] [DF]2 [FA] | [EG]3- [EG]2 z | %8
w: Cold win- ter is|end- ed,|song birds be- gin to|sing. *|
w: Christ Je- sus is|vic- tor,|gone is the drear- y|night. *|
w: Sweet car- ols to|Je- sus|speed on the morn- ing|air. *|
 [EG]3 [EG][FA][GB] | [Gc]3 [GB]2 z | [GB][Gc][Gd] [Ge]2 [Gc] | [Fd]3- [Fd]2 z | e4 ed[Fc] | %13
w: Hail, morn- ing of|tri- umph!|wel- come we sing to|thee! *|Christ is a- live,|
w: Sin’s fet- ters are|brok- en,|death has a- side been|hurled; *|Christ is a- live,|
w: Hail, time of re-|joic- ing!|wel- come we sing to|thee! *|Christ is a- live,|
 [Fd]3 [DF][^C=E][DF] | [Fd]3 [Ec]3 | [DB]3- [DB]2 z ||"^Refrain" (z [GB][GB]) (z [GB])[GBe] | %17
w: of- fer- ing lib-|er- ty.|||
w: rea- dy to save|the world.|Sweet *|* * * East-|
w: sin fet- tered hearts|to free.|||
 z [FA][FA] [FAc] z2 | z [FA][FA] (z [FA])[FAd] | z [EG][EG] [EGB] z2 | G3 c2 G | %21
w: ||||
w: |* * * er-||* time, time|
w: ||||
 [GB]2 [FA] [FA]2 z | [FA]3 [Ad]2 A | [Gc]2 [GB] [GB]2 z | (z [GB][GB]) (z [GB])[GBe] | %25
w: ||||
w: so sub- lime,|Wel- come we|sing to thee,|* * * Glad|
w: ||||
 z [FA][FA] [FAc] z2 | z [FA][FA] (z [FA])[FAd] | z [EG][EG] [EGB] z2 | [=EG]3 [Ec]2 [EG] | %29
w: ||||
w: |* day * of||* li- ber-|
w: ||||
 [GB][FA][=EG] [FA] ([GB][Ac]) | (z [B,E])([B,E] z) ([B,D][B,D]) | [G,B,E]3- [G,B,E]2 z |] %32
w: |||
w: ty. Sweet East- er- time, *|* ring, bells, *||
w: |||
V:2
 x6 | x6 | x6 | x6 | x6 | x6 | x6 | x6 | x6 | x6 | x6 | x6 | (FFF F2) x2 | x6 | x6 | x6 || %16
 e3 d2 x | c3- x3 | d3 c2 x | B3- x3 | x6 | x6 | x6 | x6 | e3 d2 x | c3- x3 | d3- c2 x | B3- x3 | %28
 x6 | x6 | [EG]3 [DF]3 | x6 |] %32
V:3
 [E,B,]3 [E,B,][E,B,][E,B,] | [E,E]3 [E,E]2 z | [E,B,][E,C][E,B,] [E,G,]2 [E,G,] | %3
 [F,A,]3- [F,A,]2 z | [B,,B,]3 [B,,B,][B,,B,][B,,B,] | [B,,B,]3 [B,,B,]2 z | %6
 [B,,B,][B,,B,][B,,B,] [B,,B,]2 [B,,B,] | [E,B,]3- [E,B,]2 z | [E,B,]3 [E,B,][E,B,][E,B,] | %9
 [E,E]3 [E,E]2 z | [E,E][E,E][E,E] [E,B,]2 [E,B,] | [F,B,]3- [F,B,]2 z | %12
 ([F,C][F,C][F,C] C)B,[F,A,] x | B,3 z3 | ([F,B,][F,B,][F,B,]) [F,=A,]2 [F,A,] | %15
 (B,=A,_B, =B,CD) || E3 D2 E | (C3- C=B,C) | D3 C2 D | (B,3- B,=A,B,) | %20
 (C,[B,C=E][B,CE]) (=E,[B,C])[B,C] | (D,[A,C])[A,C] (F,[A,C][A,C]) | %22
 (B,,[A,B,D][A,B,D]) (B,,[A,B,D])[A,B,D] | (E,G,)B, (EB,G,) | E3 D2 E | (C3- C=B,=C) | D3 C2 D | %27
 (B,3- B,=A,B,) | [C,C]3 [C,G,]2 [C,C] | [F,C][F,C][F,C] [A,,C] ([A,,C][A,,C]) | %30
 [B,,B,]3 [B,,A,]3 | [E,G,]3- [E,G,]2 z |] %32
V:4
 x6 | x6 | x6 | x6 | x6 | x6 | x6 | x6 | x6 | x6 | x6 | x6 | x3 F,2 x2 | B,3 x3 | x6 | %15
 [=B,,-=B,]3 [B,,B,]2 x || x6 | x6 | x6 | x6 | x6 | x6 | x6 | x6 | x6 | x6 | x6 | x6 | x6 | x6 | %30
 x6 | x6 |] %32

